img/icon-user-black.svg

<svg width="48" height="48" viewBox="0 0 48 48" fill="none" xmlns="http://www.w3.org/2000/svg">
<path d="M47.8602 45.2303C45.9842 40.5003 42.7051 36.4385 38.4512 33.5753C34.1972 30.712 29.1666 29.1801 24.016 29.1801C18.8654 29.1801 13.8346 30.7119 9.58081 33.5753C5.327 36.4386 2.04777 40.5005 0.17173 45.2303C-0.0495551 45.7217 -0.0571383 46.2808 0.149869 46.7779C0.356877 47.275 0.761082 47.6674 1.26834 47.8636C1.77604 48.0603 2.34264 48.0436 2.83738 47.8179C3.33214 47.5926 3.71226 47.1774 3.88892 46.6693C5.47052 42.6743 8.23741 39.2434 11.8284 36.8243C15.4194 34.4052 19.6671 33.1113 24.0159 33.1113C28.3648 33.1113 32.6126 34.4051 36.2034 36.8243C39.7944 39.2434 42.5614 42.6743 44.143 46.6693C44.2875 47.0397 44.5427 47.3582 44.8746 47.583C45.2061 47.8082 45.5992 47.9292 46.0016 47.9305C46.2483 47.9327 46.4932 47.8857 46.7212 47.7924C47.2182 47.6032 47.6179 47.2262 47.8316 46.7454C48.0458 46.2641 48.056 45.719 47.8602 45.2303L47.8602 45.2303ZM24.0163 25.2268C27.4088 25.2268 30.6624 23.8978 33.0613 21.5323C35.4602 19.1668 36.808 15.9585 36.808 12.6134C36.808 9.26826 35.4602 6.05995 33.0613 3.69449C30.6624 1.32902 27.4088 0 24.0163 0C20.6239 0 17.3703 1.32902 14.9714 3.69449C12.5725 6.05995 11.2247 9.26826 11.2247 12.6134C11.23 15.9572 12.5791 19.1625 14.9771 21.5267C17.3746 23.8912 20.6252 25.2216 24.0163 25.2268ZM24.0163 3.94169C26.3488 3.94169 28.5857 4.8554 30.2346 6.48182C31.8839 8.10783 32.8106 10.3135 32.8106 12.6134C32.8106 14.9133 31.884 17.1191 30.2346 18.7454C28.5856 20.3714 26.3488 21.2851 24.0163 21.2851C21.6839 21.2851 19.447 20.3714 17.7981 18.7454C16.1488 17.1191 15.2221 14.9133 15.2221 12.6134C15.2274 10.3153 16.1554 8.11256 17.8038 6.48745C19.4519 4.86235 21.6856 3.94687 24.0163 3.94169V3.94169Z" fill="#222222"/>
</svg>

<svg xmlns="http://www.w3.org/2000/svg" width="48" height="48" fill="none" xmlns:v="https://vecta.io/nano"><path d="M47.86 45.23c-1.876-4.73-5.155-8.792-9.409-11.655a25.86 25.86 0 0 0-14.435-4.395c-5.151 0-10.181 1.532-14.435 4.395A25.31 25.31 0 0 0 .172 45.23c-.221.491-.229 1.05-.022 1.548s.611.889 1.118 1.086 1.074.18 1.569-.046a1.98 1.98 0 0 0 1.052-1.149 21.36 21.36 0 0 1 7.939-9.845 21.82 21.82 0 0 1 12.187-3.713 21.82 21.82 0 0 1 12.188 3.713 21.36 21.36 0 0 1 7.94 9.845 1.97 1.97 0 0 0 .732.914 2.02 2.02 0 0 0 1.127.348c.247.002.492-.045.72-.138.497-.189.897-.566 1.11-1.047s.224-1.026.029-1.515h0zM24.016 25.227c3.392 0 6.646-1.329 9.045-3.695s3.747-5.574 3.747-8.919-1.348-6.553-3.747-8.919S27.409 0 24.016 0s-6.646 1.329-9.045 3.694-3.747 5.574-3.747 8.919c.005 3.344 1.354 6.549 3.752 8.913s5.648 3.695 9.039 3.7zm0-21.285c2.332 0 4.569.914 6.218 2.54a8.61 8.61 0 0 1 2.576 6.132 8.61 8.61 0 0 1-2.576 6.132c-1.649 1.626-3.886 2.54-6.218 2.54s-4.569-.914-6.218-2.54a8.61 8.61 0 0 1-2.576-6.132 8.63 8.63 0 0 1 2.582-6.126c1.648-1.625 3.882-2.541 6.213-2.546h0z" fill="#222"/></svg>
